dist/images/download-app-store.svg

<svg width="121" height="40" viewBox="0 0 121 40" fill="none" xmlns="http://www.w3.org/2000/svg">
<path d="M0.5 10.5C0.5 7.23841 0.5 5.60761 1.03284 4.32122C1.7433 2.60602 3.10602 1.2433 4.82122 0.532843C6.10761 0 7.73841 0 11 0H110C113.262 0 114.892 0 116.179 0.532843C117.894 1.2433 119.257 2.60602 119.967 4.32122C120.5 5.60761 120.5 7.23841 120.5 10.5V29.5C120.5 32.7616 120.5 34.3924 119.967 35.6788C119.257 37.394 117.894 38.7567 116.179 39.4672C114.892 40 113.262 40 110 40H11C7.73841 40 6.10761 40 4.82122 39.4672C3.10602 38.7567 1.7433 37.394 1.03284 35.6788C0.5 34.3924 0.5 32.7616 0.5 29.5V10.5Z" fill="#0C0D10"/>
<path d="M82.0257 19.2004V21.4914H80.5896V22.9938H82.0257V28.0988C82.0257 29.842 82.8143 30.5392 84.7981 30.5392C85.1468 30.5392 85.4788 30.4977 85.7693 30.4479V28.9621C85.5203 28.987 85.3626 29.0036 85.0887 29.0036C84.2005 29.0036 83.8104 28.5886 83.8104 27.6423V22.9938H85.7693V21.4914H83.8104V19.2004H82.0257Z" fill="white"/>
<path d="M90.8232 30.6638C93.4628 30.6638 95.0815 28.8957 95.0815 25.9655C95.0815 23.0519 93.4545 21.2756 90.8232 21.2756C88.1835 21.2756 86.5566 23.0519 86.5566 25.9655C86.5566 28.8957 88.1752 30.6638 90.8232 30.6638ZM90.8232 29.0783C89.2709 29.0783 88.3994 27.9411 88.3994 25.9655C88.3994 24.0065 89.2709 22.861 90.8232 22.861C92.3671 22.861 93.247 24.0065 93.247 25.9655C93.247 27.9328 92.3671 29.0783 90.8232 29.0783Z" fill="white"/>
<path d="M96.4664 30.4894H98.2511V25.152C98.2511 23.882 99.2056 23.027 100.559 23.027C100.874 23.027 101.405 23.0851 101.555 23.1349V21.3752C101.364 21.3254 101.024 21.3005 100.758 21.3005C99.5792 21.3005 98.5748 21.9479 98.3175 22.8361H98.1846V21.4499H96.4664V30.4894Z" fill="white"/>
<path d="M105.986 22.7946C107.306 22.7946 108.169 23.716 108.211 25.1354H103.645C103.745 23.7243 104.666 22.7946 105.986 22.7946ZM108.202 28.049C107.87 28.7546 107.132 29.1447 106.052 29.1447C104.625 29.1447 103.703 28.1403 103.645 26.5549V26.4553H110.029V25.8327C110.029 22.9938 108.509 21.2756 105.994 21.2756C103.446 21.2756 101.827 23.11 101.827 25.9987C101.827 28.8874 103.413 30.6638 106.003 30.6638C108.07 30.6638 109.514 29.6677 109.921 28.049H108.202Z" fill="white"/>
<path d="M70.3221 27.1513C70.4598 29.371 72.3095 30.7906 75.0626 30.7906C78.005 30.7906 79.8462 29.3021 79.8462 26.9276C79.8462 25.0606 78.7966 24.0282 76.2499 23.4346L74.882 23.099C73.2645 22.7205 72.6106 22.2129 72.6106 21.3267C72.6106 20.2082 73.6259 19.4769 75.1487 19.4769C76.5941 19.4769 77.5921 20.191 77.7727 21.3353H79.6483C79.5365 19.2446 77.6953 17.7734 75.1745 17.7734C72.4644 17.7734 70.6576 19.2446 70.6576 21.4557C70.6576 23.2797 71.6815 24.3637 73.927 24.8885L75.5272 25.2757C77.1705 25.6629 77.8932 26.2307 77.8932 27.1771C77.8932 28.2783 76.7575 29.0785 75.2089 29.0785C73.5484 29.0785 72.3955 28.33 72.2321 27.1513H70.3221Z" fill="white"/>
<path d="M51.8348 21.3005C50.6063 21.3005 49.5437 21.9147 48.9959 22.944H48.8631V21.4499H47.1448V33.4943H48.9295V29.1198H49.0706C49.5437 30.0744 50.5647 30.6388 51.8514 30.6388C54.1341 30.6388 55.5867 28.8376 55.5867 25.9655C55.5867 23.0934 54.1341 21.3005 51.8348 21.3005ZM51.3284 29.0368C49.8343 29.0368 48.8963 27.8581 48.8963 25.9738C48.8963 24.0812 49.8343 22.9025 51.3367 22.9025C52.8475 22.9025 53.7522 24.0563 53.7522 25.9655C53.7522 27.883 52.8475 29.0368 51.3284 29.0368Z" fill="white"/>
<path d="M61.8316 21.3005C60.603 21.3005 59.5405 21.9147 58.9927 22.944H58.8599V21.4499H57.1416V33.4943H58.9263V29.1198H59.0674C59.5405 30.0744 60.5615 30.6388 61.8482 30.6388C64.1309 30.6388 65.5835 28.8376 65.5835 25.9655C65.5835 23.0934 64.1309 21.3005 61.8316 21.3005ZM61.3252 29.0368C59.8311 29.0368 58.8931 27.8581 58.8931 25.9738C58.8931 24.0812 59.8311 22.9025 61.3335 22.9025C62.8443 22.9025 63.749 24.0563 63.749 25.9655C63.749 27.883 62.8443 29.0368 61.3252 29.0368Z" fill="white"/>
<path d="M43.9428 30.4894H45.9905L41.508 18.0746H39.4346L34.9521 30.4894H36.931L38.0752 27.1943H42.8072L43.9428 30.4894ZM40.3724 20.3287H40.5186L42.3168 25.5768H38.5656L40.3724 20.3287Z" fill="white"/>
<path d="M36.1514 8.71069V14.6997H38.3137C40.0984 14.6997 41.1318 13.5999 41.1318 11.6865C41.1318 9.80225 40.0901 8.71069 38.3137 8.71069H36.1514ZM37.0811 9.55737H38.21C39.4509 9.55737 40.1855 10.3459 40.1855 11.699C40.1855 13.0728 39.4634 13.853 38.21 13.853H37.0811V9.55737Z" fill="white"/>
<path d="M44.2969 14.7869C45.6167 14.7869 46.4261 13.9028 46.4261 12.4377C46.4261 10.981 45.6126 10.0928 44.2969 10.0928C42.9771 10.0928 42.1636 10.981 42.1636 12.4377C42.1636 13.9028 42.9729 14.7869 44.2969 14.7869ZM44.2969 13.9941C43.5208 13.9941 43.085 13.4255 43.085 12.4377C43.085 11.4583 43.5208 10.8855 44.2969 10.8855C45.0689 10.8855 45.5088 11.4583 45.5088 12.4377C45.5088 13.4214 45.0689 13.9941 44.2969 13.9941Z" fill="white"/>
<path d="M53.3182 10.1799H52.4259L51.6207 13.6289H51.5501L50.6205 10.1799H49.7655L48.8358 13.6289H48.7694L47.9601 10.1799H47.0553L48.3004 14.6997H49.2176L50.1473 11.3711H50.2179L51.1517 14.6997H52.0772L53.3182 10.1799Z" fill="white"/>
<path d="M54.3458 14.6997H55.2382V12.0559C55.2382 11.3503 55.6574 10.9104 56.3173 10.9104C56.9772 10.9104 57.2926 11.2715 57.2926 11.9978V14.6997H58.185V11.7737C58.185 10.6987 57.6288 10.0928 56.6203 10.0928C55.9396 10.0928 55.4914 10.3958 55.2714 10.8979H55.205V10.1799H54.3458V14.6997Z" fill="white"/>
<path d="M59.5903 14.6997H60.4826V8.41602H59.5903V14.6997Z" fill="white"/>
<path d="M63.8386 14.7869C65.1584 14.7869 65.9678 13.9028 65.9678 12.4377C65.9678 10.981 65.1543 10.0928 63.8386 10.0928C62.5188 10.0928 61.7053 10.981 61.7053 12.4377C61.7053 13.9028 62.5146 14.7869 63.8386 14.7869ZM63.8386 13.9941C63.0625 13.9941 62.6267 13.4255 62.6267 12.4377C62.6267 11.4583 63.0625 10.8855 63.8386 10.8855C64.6106 10.8855 65.0505 11.4583 65.0505 12.4377C65.0505 13.4214 64.6106 13.9941 63.8386 13.9941Z" fill="white"/>
<path d="M68.6265 14.0232C68.1409 14.0232 67.7881 13.7866 67.7881 13.3799C67.7881 12.9814 68.0704 12.7698 68.6929 12.7283L69.7969 12.6577V13.0354C69.7969 13.5957 69.2989 14.0232 68.6265 14.0232ZM68.3982 14.7744C68.9917 14.7744 69.4856 14.5171 69.7554 14.0647H69.826V14.6997H70.6851V11.6118C70.6851 10.6572 70.0459 10.0928 68.9129 10.0928C67.8877 10.0928 67.1573 10.5908 67.066 11.3669H67.9292C68.0289 11.0474 68.3733 10.8647 68.8714 10.8647C69.4815 10.8647 69.7969 11.1345 69.7969 11.6118V12.002L68.5726 12.0725C67.4976 12.1389 66.8916 12.6079 66.8916 13.4214C66.8916 14.2473 67.5267 14.7744 68.3982 14.7744Z" fill="white"/>
<path d="M73.7132 14.7744C74.3358 14.7744 74.8629 14.4797 75.1327 13.9858H75.2032V14.6997H76.0582V8.41602H75.1659V10.8979H75.0995C74.8546 10.3999 74.3316 10.1052 73.7132 10.1052C72.5719 10.1052 71.8373 11.01 71.8373 12.4377C71.8373 13.8696 72.5636 14.7744 73.7132 14.7744ZM73.9664 10.9062C74.7135 10.9062 75.1825 11.4998 75.1825 12.4419C75.1825 13.3882 74.7176 13.9734 73.9664 13.9734C73.211 13.9734 72.7586 13.3965 72.7586 12.4377C72.7586 11.4873 73.2152 10.9062 73.9664 10.9062Z" fill="white"/>
<path d="M81.8447 14.7869C83.1645 14.7869 83.9738 13.9028 83.9738 12.4377C83.9738 10.981 83.1604 10.0928 81.8447 10.0928C80.5249 10.0928 79.7114 10.981 79.7114 12.4377C79.7114 13.9028 80.5207 14.7869 81.8447 14.7869ZM81.8447 13.9941C81.0686 13.9941 80.6328 13.4255 80.6328 12.4377C80.6328 11.4583 81.0686 10.8855 81.8447 10.8855C82.6166 10.8855 83.0566 11.4583 83.0566 12.4377C83.0566 13.4214 82.6166 13.9941 81.8447 13.9941Z" fill="white"/>
<path d="M85.155 14.6997H86.0474V12.0559C86.0474 11.3503 86.4666 10.9104 87.1265 10.9104C87.7864 10.9104 88.1018 11.2715 88.1018 11.9978V14.6997H88.9941V11.7737C88.9941 10.6987 88.438 10.0928 87.4294 10.0928C86.7488 10.0928 86.3005 10.3958 86.0806 10.8979H86.0142V10.1799H85.155V14.6997Z" fill="white"/>
<path d="M93.1039 9.05518V10.2007H92.3858V10.9519H93.1039V13.5044C93.1039 14.376 93.4981 14.7246 94.4901 14.7246C94.6644 14.7246 94.8304 14.7039 94.9757 14.679V13.936C94.8512 13.9485 94.7723 13.9568 94.6353 13.9568C94.1913 13.9568 93.9962 13.7493 93.9962 13.2761V10.9519H94.9757V10.2007H93.9962V9.05518H93.1039Z" fill="white"/>
<path d="M96.1735 14.6997H97.0658V12.0601C97.0658 11.3752 97.4726 10.9146 98.203 10.9146C98.8339 10.9146 99.1701 11.2798 99.1701 12.002V14.6997H100.062V11.782C100.062 10.707 99.4689 10.0969 98.506 10.0969C97.8253 10.0969 97.348 10.3999 97.1281 10.9062H97.0575V8.41602H96.1735V14.6997Z" fill="white"/>
<path d="M103.281 10.8523C103.941 10.8523 104.373 11.313 104.394 12.0227H102.111C102.161 11.3171 102.622 10.8523 103.281 10.8523ZM104.39 13.4795C104.224 13.8323 103.854 14.0273 103.315 14.0273C102.601 14.0273 102.14 13.5251 102.111 12.7324V12.6826H105.303V12.3713C105.303 10.9519 104.543 10.0928 103.286 10.0928C102.011 10.0928 101.202 11.01 101.202 12.4543C101.202 13.8987 101.995 14.7869 103.29 14.7869C104.323 14.7869 105.045 14.2888 105.249 13.4795H104.39Z" fill="white"/>
<path d="M25.269 20.3011C25.2907 18.6201 26.1934 17.0295 27.6256 16.149C26.7221 14.8587 25.2088 14.0406 23.6344 13.9913C21.9552 13.8151 20.3272 14.9962 19.4715 14.9962C18.5992 14.9962 17.2817 14.0088 15.863 14.038C14.0137 14.0978 12.2898 15.1491 11.3901 16.7659C9.45607 20.1143 10.8987 25.0354 12.7513 27.742C13.6782 29.0673 14.7615 30.5478 16.1789 30.4953C17.566 30.4377 18.084 29.6108 19.7583 29.6108C21.4171 29.6108 21.9031 30.4953 23.3493 30.4619C24.8377 30.4377 25.7754 29.1306 26.6698 27.7927C27.3358 26.8484 27.8483 25.8047 28.1882 24.7002C26.4391 23.9604 25.271 22.2002 25.269 20.3011Z" fill="white"/>
<path d="M22.5373 12.2113C23.3489 11.2371 23.7487 9.98494 23.6518 8.7207C22.412 8.85092 21.2668 9.44348 20.4443 10.3803C19.64 11.2956 19.2214 12.5258 19.3006 13.7417C20.5408 13.7545 21.7601 13.178 22.5373 12.2113Z" fill="white"/>
<path d="M4.82122 39.4672L4.43853 40.391L4.82122 39.4672ZM119.967 35.6788L120.891 36.0615L119.967 35.6788ZM116.179 39.4672L116.561 40.391L116.179 39.4672ZM116.179 0.532843L116.561 -0.391036L116.179 0.532843ZM119.967 4.32122L120.891 3.93853L119.967 4.32122ZM11 1H110V-1H11V1ZM119.5 10.5V29.5H121.5V10.5H119.5ZM110 39H11V41H110V39ZM1.5 29.5V10.5H-0.5V29.5H1.5ZM11 39C9.35552 39 8.17224 38.9995 7.23798 38.9357C6.3127 38.8726 5.70494 38.7508 5.2039 38.5433L4.43853 40.391C5.22389 40.7163 6.07473 40.861 7.10184 40.9311C8.11997 41.0005 9.38288 41 11 41V39ZM-0.5 29.5C-0.5 31.1171 -0.500542 32.38 -0.431075 33.3982C-0.360996 34.4253 -0.216341 35.2761 0.108964 36.0615L1.95672 35.2961C1.74918 34.7951 1.62742 34.1873 1.56429 33.262C1.50054 32.3278 1.5 31.1445 1.5 29.5H-0.5ZM5.2039 38.5433C3.73373 37.9343 2.56569 36.7663 1.95672 35.2961L0.108964 36.0615C0.920915 38.0217 2.47831 39.5791 4.43853 40.391L5.2039 38.5433ZM119.5 29.5C119.5 31.1445 119.499 32.3278 119.436 33.262C119.373 34.1873 119.251 34.7951 119.043 35.2961L120.891 36.0615C121.216 35.2761 121.361 34.4253 121.431 33.3982C121.501 32.38 121.5 31.1171 121.5 29.5H119.5ZM110 41C111.617 41 112.88 41.0005 113.898 40.9311C114.925 40.861 115.776 40.7163 116.561 40.391L115.796 38.5433C115.295 38.7508 114.687 38.8726 113.762 38.9357C112.828 38.9995 111.644 39 110 39V41ZM119.043 35.2961C118.434 36.7663 117.266 37.9343 115.796 38.5433L116.561 40.391C118.522 39.5791 120.079 38.0217 120.891 36.0615L119.043 35.2961ZM110 1C111.644 1 112.828 1.00054 113.762 1.06429C114.687 1.12742 115.295 1.24918 115.796 1.45672L116.561 -0.391036C115.776 -0.716341 114.925 -0.860996 113.898 -0.931075C112.88 -1.00054 111.617 -1 110 -1V1ZM121.5 10.5C121.5 8.88289 121.501 7.61997 121.431 6.60184C121.361 5.57473 121.216 4.72389 120.891 3.93853L119.043 4.7039C119.251 5.20494 119.373 5.8127 119.436 6.73798C119.499 7.67225 119.5 8.85552 119.5 10.5H121.5ZM115.796 1.45672C117.266 2.06569 118.434 3.23373 119.043 4.7039L120.891 3.93853C120.079 1.97831 118.522 0.420915 116.561 -0.391036L115.796 1.45672ZM11 -1C9.38289 -1 8.11997 -1.00054 7.10184 -0.931075C6.07473 -0.860996 5.22389 -0.716341 4.43853 -0.391036L5.2039 1.45672C5.70494 1.24918 6.3127 1.12742 7.23798 1.06429C8.17225 1.00054 9.35552 1 11 1V-1ZM1.5 10.5C1.5 8.85552 1.50054 7.67225 1.56429 6.73798C1.62742 5.8127 1.74918 5.20494 1.95672 4.7039L0.108964 3.93853C-0.216341 4.72389 -0.360996 5.57473 -0.431075 6.60184C-0.500542 7.61997 -0.5 8.88289 -0.5 10.5H1.5ZM4.43853 -0.391036C2.47831 0.420915 0.920915 1.97831 0.108964 3.93853L1.95672 4.7039C2.56569 3.23373 3.73373 2.06569 5.2039 1.45672L4.43853 -0.391036Z" fill="#A6A6A6"/>
</svg>

<svg width="121" height="40" fill="none" xmlns="http://www.w3.org/2000/svg"><path d="M.5 10.5c0-3.262 0-4.892.533-6.179A7 7 0 014.82.533C6.108 0 7.738 0 11 0h99c3.262 0 4.892 0 6.179.533a6.998 6.998 0 013.788 3.788c.533 1.287.533 2.917.533 6.179v19c0 3.262 0 4.892-.533 6.179a6.999 6.999 0 01-3.788 3.788C114.892 40 113.262 40 110 40H11c-3.262 0-4.892 0-6.179-.533a7 7 0 01-3.788-3.788C.5 34.392.5 32.762.5 29.5v-19z" fill="#0C0D10"/><path d="M82.026 19.2v2.291H80.59v1.503h1.436v5.105c0 1.743.788 2.44 2.772 2.44.349 0 .68-.041.971-.091v-1.486c-.249.025-.406.042-.68.042-.888 0-1.279-.415-1.279-1.362v-4.648h1.96V21.49h-1.96V19.2h-1.784zm8.797 11.464c2.64 0 4.259-1.768 4.259-4.699 0-2.913-1.627-4.69-4.259-4.69-2.64 0-4.266 1.777-4.266 4.69 0 2.93 1.618 4.699 4.266 4.699zm0-1.586c-1.552 0-2.424-1.137-2.424-3.113 0-1.959.872-3.104 2.424-3.104 1.544 0 2.424 1.145 2.424 3.104 0 1.968-.88 3.113-2.424 3.113zm5.643 1.412h1.785v-5.338c0-1.27.955-2.125 2.308-2.125.315 0 .846.058.996.108v-1.76c-.191-.05-.531-.075-.797-.075-1.179 0-2.183.648-2.44 1.536h-.133V21.45h-1.719v9.04zm9.52-7.695c1.32 0 2.183.921 2.225 2.34h-4.566c.1-1.41 1.021-2.34 2.341-2.34zm2.216 5.254c-.332.706-1.07 1.096-2.15 1.096-1.427 0-2.349-1.005-2.407-2.59v-.1h6.384v-.622c0-2.84-1.52-4.557-4.035-4.557-2.548 0-4.167 1.834-4.167 4.723 0 2.888 1.586 4.665 4.176 4.665 2.067 0 3.511-.996 3.918-2.615h-1.719zm-37.88-.898c.138 2.22 1.987 3.64 4.74 3.64 2.943 0 4.784-1.489 4.784-3.863 0-1.867-1.05-2.9-3.596-3.493l-1.368-.336c-1.618-.378-2.271-.886-2.271-1.772 0-1.119 1.015-1.85 2.538-1.85 1.445 0 2.443.714 2.624 1.858h1.875c-.111-2.09-1.953-3.562-4.474-3.562-2.71 0-4.516 1.472-4.516 3.683 0 1.824 1.023 2.908 3.269 3.433l1.6.387c1.644.387 2.366.955 2.366 1.901 0 1.101-1.136 1.901-2.684 1.901-1.66 0-2.814-.748-2.977-1.927h-1.91zM51.835 21.3c-1.229 0-2.291.615-2.84 1.644h-.132V21.45h-1.718v12.044h1.784V29.12h.142c.473.954 1.494 1.519 2.78 1.519 2.283 0 3.736-1.801 3.736-4.674 0-2.872-1.453-4.665-3.752-4.665zm-.507 7.737c-1.494 0-2.432-1.179-2.432-3.063 0-1.893.938-3.072 2.44-3.072 1.511 0 2.416 1.154 2.416 3.063 0 1.918-.905 3.072-2.424 3.072zM61.832 21.3c-1.229 0-2.291.615-2.84 1.644h-.132V21.45h-1.718v12.044h1.784V29.12h.141c.474.954 1.495 1.519 2.781 1.519 2.283 0 3.736-1.801 3.736-4.674 0-2.872-1.453-4.665-3.752-4.665zm-.507 7.737c-1.494 0-2.432-1.179-2.432-3.063 0-1.893.938-3.072 2.44-3.072 1.511 0 2.416 1.154 2.416 3.063 0 1.918-.905 3.072-2.424 3.072zM43.943 30.49h2.047l-4.482-12.415h-2.073l-4.483 12.414h1.979l1.144-3.295h4.732l1.136 3.295zm-3.57-10.161h.146l1.798 5.248h-3.751l1.806-5.248zM36.151 8.71v5.99h2.163c1.784 0 2.818-1.1 2.818-3.013 0-1.885-1.042-2.976-2.818-2.976H36.15zm.93.847h1.129c1.24 0 1.975.789 1.975 2.142 0 1.374-.722 2.154-1.975 2.154h-1.129V9.557zm7.216 5.23c1.32 0 2.13-.884 2.13-2.35 0-1.456-.814-2.344-2.13-2.344-1.32 0-2.133.888-2.133 2.345 0 1.465.809 2.349 2.133 2.349zm0-.793c-.776 0-1.212-.569-1.212-1.556 0-.98.436-1.553 1.212-1.553.772 0 1.212.573 1.212 1.553 0 .983-.44 1.556-1.212 1.556zm9.021-3.814h-.892l-.805 3.449h-.07l-.93-3.45h-.855l-.93 3.45h-.067l-.809-3.45h-.905L48.3 14.7h.918l.93-3.328h.07l.934 3.329h.925l1.241-4.52zm1.028 4.52h.892v-2.644c0-.706.42-1.146 1.08-1.146.66 0 .975.361.975 1.088V14.7h.892v-2.926c0-1.075-.556-1.681-1.565-1.681-.68 0-1.129.303-1.349.805h-.066v-.718h-.86v4.52zm5.244 0h.893V8.416h-.893V14.7zm4.249.087c1.32 0 2.129-.884 2.129-2.35 0-1.456-.814-2.344-2.13-2.344-1.32 0-2.133.888-2.133 2.345 0 1.465.81 2.349 2.134 2.349zm0-.793c-.776 0-1.212-.569-1.212-1.556 0-.98.435-1.553 1.212-1.553.772 0 1.212.573 1.212 1.553 0 .983-.44 1.556-1.212 1.556zm4.787.029c-.485 0-.838-.236-.838-.643 0-.399.282-.61.905-.652l1.104-.07v.377c0 .56-.498.988-1.17.988zm-.228.751c.594 0 1.088-.257 1.357-.71h.071v.636h.86v-3.088c0-.955-.64-1.52-1.773-1.52-1.025 0-1.756.499-1.847 1.275h.863c.1-.32.444-.502.942-.502.61 0 .926.27.926.747v.39l-1.224.07c-1.075.067-1.681.536-1.681 1.35 0 .825.635 1.352 1.506 1.352zm5.315 0c.623 0 1.15-.294 1.42-.788h.07v.714h.855V8.416h-.892v2.482H75.1c-.245-.498-.768-.793-1.387-.793-1.141 0-1.876.905-1.876 2.333 0 1.432.727 2.336 1.876 2.336zm.253-3.868c.748 0 1.217.594 1.217 1.536 0 .946-.465 1.531-1.217 1.531-.755 0-1.207-.577-1.207-1.535 0-.95.456-1.532 1.207-1.532zm7.879 3.881c1.32 0 2.129-.884 2.129-2.35 0-1.456-.814-2.344-2.13-2.344-1.32 0-2.133.888-2.133 2.345 0 1.465.81 2.349 2.134 2.349zm0-.793c-.776 0-1.212-.569-1.212-1.556 0-.98.436-1.553 1.212-1.553.772 0 1.212.573 1.212 1.553 0 .983-.44 1.556-1.212 1.556zm3.31.706h.892v-2.644c0-.706.42-1.146 1.08-1.146.66 0 .975.361.975 1.088V14.7h.892v-2.926c0-1.075-.556-1.681-1.565-1.681-.68 0-1.129.303-1.348.805h-.067v-.718h-.859v4.52zm7.949-5.645v1.146h-.718v.75h.718v2.553c0 .872.394 1.22 1.386 1.22.174 0 .34-.02.486-.045v-.743c-.125.012-.204.02-.34.02-.445 0-.64-.207-.64-.68v-2.324h.98V10.2h-.98V9.055h-.892zm3.07 5.645h.892v-2.64c0-.685.407-1.145 1.137-1.145.63 0 .967.365.967 1.087V14.7h.892v-2.918c0-1.075-.593-1.685-1.556-1.685-.68 0-1.158.303-1.378.81h-.07V8.415h-.885V14.7zm7.107-3.848c.66 0 1.092.461 1.113 1.17h-2.283c.05-.705.511-1.17 1.17-1.17zm1.109 2.627c-.166.353-.536.548-1.075.548-.714 0-1.175-.502-1.204-1.295v-.05h3.192v-.31c0-1.42-.76-2.28-2.017-2.28-1.275 0-2.084.918-2.084 2.362 0 1.445.793 2.333 2.088 2.333 1.033 0 1.755-.498 1.959-1.308h-.859zm-79.121 6.822a4.989 4.989 0 012.357-4.152 5.128 5.128 0 00-3.992-2.158c-1.679-.176-3.307 1.005-4.163 1.005-.872 0-2.19-.987-3.608-.958a5.359 5.359 0 00-4.473 2.728c-1.934 3.348-.491 8.27 1.361 10.976.927 1.325 2.01 2.806 3.428 2.753 1.387-.057 1.905-.884 3.58-.884 1.658 0 2.144.884 3.59.85 1.489-.023 2.426-1.33 3.32-2.668a10.957 10.957 0 001.52-3.093 4.824 4.824 0 01-2.92-4.399zm-2.732-8.09a4.872 4.872 0 001.115-3.49 4.957 4.957 0 00-3.208 1.66 4.678 4.678 0 00-1.143 3.36 4.147 4.147 0 003.236-1.53z" fill="#fff"/><path d="M4.821 39.467l-.382.924.382-.924zm115.146-3.788l.924.383-.924-.383zm-3.788 3.788l.382.924-.382-.924zm0-38.934l.382-.924-.382.924zm3.788 3.788l.924-.382-.924.382zM11 1h99v-2H11v2zm108.5 9.5v19h2v-19h-2zM110 39H11v2h99v-2zM1.5 29.5v-19h-2v19h2zM11 39c-1.644 0-2.828 0-3.762-.064-.925-.063-1.533-.185-2.034-.393l-.765 1.848c.785.325 1.636.47 2.663.54C8.12 41.001 9.382 41 11 41v-2zM-.5 29.5c0 1.617 0 2.88.069 3.898.07 1.027.215 1.878.54 2.663l1.848-.765c-.208-.5-.33-1.109-.393-2.034-.063-.934-.064-2.117-.064-3.762h-2zm5.704 9.043a6 6 0 01-3.247-3.247l-1.848.766a8 8 0 004.33 4.329l.765-1.848zM119.5 29.5c0 1.645-.001 2.828-.064 3.762-.063.925-.185 1.533-.393 2.034l1.848.766c.325-.786.47-1.637.54-2.664.07-1.018.069-2.28.069-3.898h-2zM110 41c1.617 0 2.88 0 3.898-.069 1.027-.07 1.878-.215 2.663-.54l-.765-1.848c-.501.208-1.109.33-2.034.393-.934.063-2.118.064-3.762.064v2zm9.043-5.704a6 6 0 01-3.247 3.247l.765 1.848a7.998 7.998 0 004.33-4.33l-1.848-.765zM110 1c1.644 0 2.828 0 3.762.064.925.063 1.533.185 2.034.393l.765-1.848c-.785-.325-1.636-.47-2.663-.54C112.88-1.001 111.617-1 110-1v2zm11.5 9.5c0-1.617.001-2.88-.069-3.898-.07-1.027-.215-1.878-.54-2.663l-1.848.765c.208.5.33 1.109.393 2.034.063.934.064 2.118.064 3.762h2zm-5.704-9.043a6 6 0 013.247 3.247l1.848-.765a7.998 7.998 0 00-4.33-4.33l-.765 1.848zM11-1c-1.617 0-2.88 0-3.898.069-1.027.07-1.878.215-2.663.54l.765 1.848c.5-.208 1.109-.33 2.034-.393C8.172 1.001 9.356 1 11 1v-2zM1.5 10.5c0-1.644 0-2.828.064-3.762.063-.925.185-1.533.393-2.034L.109 3.939c-.325.785-.47 1.636-.54 2.663C-.501 7.62-.5 8.882-.5 10.5h2zM4.439-.391a8 8 0 00-4.33 4.33l1.848.765a6 6 0 013.247-3.247L4.439-.391z" fill="#A6A6A6"/></svg>
